polaris-icons/icons/newicons/AddImageMajor.svg

<svg width="20" height="20" viewBox="0 0 20 20" fill="none" xmlns="http://www.w3.org/2000/svg">
<path d="M8.5179 3H11.4821C12.2949 2.99999 12.9506 2.99999 13.4815 3.04336C14.0281 3.08803 14.5082 3.18239 14.9525 3.40873C15.6581 3.76825 16.2317 4.34193 16.5913 5.04754C16.8176 5.49175 16.912 5.9719 16.9566 6.51853C17 7.04944 17 7.70505 17 8.51788V8.75C17 9.16421 16.6642 9.5 16.25 9.5C15.8358 9.5 15.5 9.16421 15.5 8.75V8.55C15.5 7.69755 15.4994 7.10331 15.4616 6.64068C15.4245 6.18681 15.3554 5.92604 15.2548 5.72852C15.0391 5.30516 14.6948 4.96095 14.2715 4.74524C14.074 4.6446 13.8132 4.57547 13.3593 4.53838C12.8967 4.50058 12.3025 4.5 11.45 4.5H8.55C7.69755 4.5 7.10331 4.50058 6.64068 4.53838C6.18681 4.57547 5.92604 4.6446 5.72852 4.74524C5.30516 4.96095 4.96095 5.30516 4.74524 5.72852C4.6446 5.92604 4.57547 6.18681 4.53838 6.64068C4.50058 7.10331 4.5 7.69755 4.5 8.55V10.6893L5.76256 9.42675C6.44598 8.74333 7.55402 8.74333 8.23744 9.42675L11 12.1893L12.4697 10.7196C12.7626 10.4267 13.2374 10.4267 13.5303 10.7196C13.8232 11.0125 13.8232 11.4874 13.5303 11.7803L11.5303 13.7803C11.2374 14.0732 10.7626 14.0732 10.4697 13.7803L7.17678 10.4874C7.07915 10.3898 6.92085 10.3898 6.82322 10.4874L4.53033 12.7803C4.52372 12.7869 4.51703 12.7934 4.51024 12.7997C4.51591 13.0074 4.52471 13.192 4.53838 13.3593C4.57547 13.8132 4.6446 14.074 4.74524 14.2715C4.96095 14.6948 5.30516 15.0391 5.72852 15.2548C5.92604 15.3554 6.18681 15.4245 6.64068 15.4616C7.10331 15.4994 7.69755 15.5 8.55 15.5H10.75C11.1642 15.5 11.5 15.8358 11.5 16.25C11.5 16.6642 11.1642 17 10.75 17H8.51788C7.70505 17 7.04944 17 6.51853 16.9566C5.9719 16.912 5.49175 16.8176 5.04754 16.5913C4.34193 16.2317 3.76825 15.6581 3.40873 14.9525C3.18239 14.5082 3.08803 14.0281 3.04336 13.4815C2.99999 12.9506 2.99999 12.295 3 11.4821V8.5179C2.99999 7.70506 2.99999 7.04944 3.04336 6.51853C3.08803 5.9719 3.18239 5.49175 3.40873 5.04754C3.76825 4.34193 4.34193 3.76825 5.04754 3.40873C5.49175 3.18239 5.9719 3.08803 6.51853 3.04336C7.04944 2.99999 7.70506 2.99999 8.5179 3Z" fill="black"/>
<path d="M12.5 9C13.3284 9 14 8.32843 14 7.5C14 6.67157 13.3284 6 12.5 6C11.6716 6 11 6.67157 11 7.5C11 8.32843 11.6716 9 12.5 9Z" fill="black"/>
<path d="M16.25 11.5C16.6642 11.5 17 11.8358 17 12.25V14H18.75C19.1642 14 19.5 14.3358 19.5 14.75C19.5 15.1642 19.1642 15.5 18.75 15.5H17V17.25C17 17.6642 16.6642 18 16.25 18C15.8358 18 15.5 17.6642 15.5 17.25V15.5H13.75C13.3358 15.5 13 15.1642 13 14.75C13 14.3358 13.3358 14 13.75 14H15.5V12.25C15.5 11.8358 15.8358 11.5 16.25 11.5Z" fill="black"/>
</svg>

<svg viewBox="0 0 20 20" fill="none" xmlns="http://www.w3.org/2000/svg"><path d="M8.518 3h2.964c.813 0 1.469 0 2 .043.546.045 1.026.14 1.47.366a3.75 3.75 0 0 1 1.64 1.639c.226.444.32.924.365 1.47.043.531.043 1.187.043 2v.232a.75.75 0 0 1-1.5 0v-.2c0-.852 0-1.447-.038-1.91-.037-.453-.107-.714-.207-.911a2.25 2.25 0 0 0-.984-.984c-.197-.1-.458-.17-.912-.207-.462-.037-1.056-.038-1.909-.038h-2.9c-.852 0-1.447 0-1.91.038-.453.037-.714.107-.911.207a2.25 2.25 0 0 0-.984.984c-.1.197-.17.458-.207.912-.037.462-.038 1.057-.038 1.909v2.14l1.263-1.263a1.75 1.75 0 0 1 2.474 0l2.763 2.762 1.47-1.47a.75.75 0 1 1 1.06 1.061l-2 2a.75.75 0 0 1-1.06 0l-3.293-3.293a.25.25 0 0 0-.354 0l-2.293 2.293a.763.763 0 0 1-.02.02c.006.207.015.392.028.56.037.453.107.714.207.912.216.423.56.767.984.983.197.1.458.17.912.207.462.037 1.057.038 1.909.038h2.2a.75.75 0 0 1 0 1.5h-2.232c-.813 0-1.469 0-2-.043-.546-.045-1.026-.14-1.47-.366a3.75 3.75 0 0 1-1.64-1.639c-.226-.444-.32-.924-.365-1.47-.043-.531-.043-1.187-.043-2v-2.964c0-.813 0-1.469.043-2 .045-.546.14-1.026.366-1.47a3.75 3.75 0 0 1 1.639-1.64c.444-.226.924-.32 1.47-.365.531-.043 1.187-.043 2-.043Z" fill="#000"/><path d="M12.5 9a1.5 1.5 0 1 0 0-3 1.5 1.5 0 0 0 0 3Z" fill="#000"/><path d="M16.25 11.5a.75.75 0 0 1 .75.75v1.75h1.75a.75.75 0 0 1 0 1.5h-1.75v1.75a.75.75 0 0 1-1.5 0v-1.75h-1.75a.75.75 0 0 1 0-1.5h1.75v-1.75a.75.75 0 0 1 .75-.75Z" fill="#000"/></svg>
